X:1
T:Bonny Light Horseman (4)
M:3/4
L:1/4
K:F
A/2-F/2| D F3/2 A/2| G F3/2 F/2| B c3/2 d/2| c A3/2 d/2| f f3/2 d/2|\
 B B3/2 B/2| B c3/2 d/2| d c3/2A/4-G/4| F3/2 F/2G/2-A/2| G F3/2 F/2|\
 A c3/2 d/2| d c3/2 d/4d/4| f f e| d A B| c c3/2 d/2| d c3/2 A/4G/4|\
 F3/2 F/2G/2-A/2| G F3/2 F/4F/4| B c3/2 d/2| d/2 c3/2 A| B/2 f3/2 d|\
 c A3/2 A/2| F D3/2 D/2| D3/2 z/2||
